src/images/svg/symbols/markets-stocks-and-indices/american-stocks/stocks-goldman-sachs-group.svg

<svg width="32" height="32" viewBox="0 0 32 32" fill="none" xmlns="http://www.w3.org/2000/svg">
<path d="M0 16C0 7.16344 7.16344 0 16 0C24.8366 0 32 7.16344 32 16C32 24.8366 24.8366 32 16 32C7.16344 32 0 24.8366 0 16Z" fill="#7399C6"/>
<path d="M5.94712 13.4087H7.41827V15.7452C6.92788 15.8317 6.40865 15.875 6.07692 15.875C4.57692 15.8894 4 14.9952 4 13.4952C4 11.8942 4.77885 11 6.29327 11C6.49519 11 6.88462 11.0144 7.36058 11.1154V12.5577H7.02885L6.82692 11.9952C6.63942 11.476 6.42308 11.2596 6.09135 11.2596C5.47115 11.2596 5.15385 12.0529 5.15385 13.4663C5.15385 14.9087 5.32692 15.5721 6.07692 15.5721C6.16346 15.5721 6.27885 15.5721 6.4375 15.5433V13.899L5.91827 13.5817V13.4087H5.94712ZM7.34615 19.7548C7.34615 20.6923 6.71154 21.2404 5.55769 21.2404C5.24038 21.2404 4.77885 21.1827 4.36058 21.1106V19.3077H4.69231L4.82212 19.7115C5.125 20.649 5.35577 20.9519 5.75962 20.9519C6.17788 20.9519 6.46635 20.6346 6.46635 20.1587C6.46635 19.7837 6.27885 19.524 5.875 19.2933L5.21154 18.9471C4.67788 18.6587 4.38942 18.226 4.38942 17.6779C4.38942 16.8558 5.05288 16.3654 6.16346 16.3654C6.42308 16.3654 6.69712 16.3798 7.17308 16.4519V17.9375H6.84135L6.63942 17.4038C6.45192 16.8702 6.26442 16.6683 5.875 16.6683C5.48558 16.6683 5.24038 16.8846 5.24038 17.2452C5.24038 17.5481 5.42788 17.8077 5.80288 18.0096L6.50962 18.399C7.07212 18.7019 7.34615 19.149 7.34615 19.7548ZM10.4471 20.851L10.5769 21.0529V21.1538H9.50961L9.48077 20.7212C9.36538 21.0385 9.0625 21.226 8.65865 21.226C8.125 21.226 7.76442 20.9087 7.76442 20.3173C7.76442 19.7404 8.08173 19.3798 9.04808 18.9904L9.46635 18.8029V18.3125C9.46635 17.9231 9.35096 17.7356 9.09135 17.7356C8.86058 17.7356 8.70192 17.8942 8.55769 18.2692L8.34135 18.8029H8.02404V17.7212C8.42788 17.6058 8.84615 17.5192 9.20673 17.5192C10.0144 17.5192 10.4327 17.8942 10.4327 18.5865V20.851H10.4471ZM10.8942 14.0433C10.8942 15.2404 10.2596 15.8894 9.45192 15.8894C8.64423 15.8894 8.00962 15.226 8.00962 14.0433C8.00962 12.8606 8.64423 12.1683 9.45192 12.1683C10.2596 12.1683 10.8942 12.8462 10.8942 14.0433ZM9.48077 20.2163V19.0769L9.35096 19.149C8.94711 19.3365 8.75962 19.6538 8.75962 20.1731C8.75962 20.6058 8.875 20.8077 9.12019 20.8077C9.35096 20.8077 9.48077 20.5769 9.48077 20.2163ZM9.87019 14.0433C9.87019 12.7452 9.75481 12.4135 9.4375 12.4135C9.12019 12.4135 9.00481 12.7452 9.00481 14.0433C9.00481 15.3413 9.12019 15.6587 9.4375 15.6587C9.75481 15.6587 9.87019 15.3125 9.87019 14.0433ZM13.2885 20.274L13.4904 20.375C13.274 20.9663 12.9856 21.2404 12.3942 21.2404C11.5 21.2404 11.024 20.5481 11.024 19.4087C11.024 18.1827 11.5865 17.5192 12.5529 17.5192C12.8125 17.5192 13.1731 17.5481 13.4615 17.6779V18.8606H13.1442L13.0144 18.4279C12.8413 17.9231 12.726 17.7644 12.5385 17.7644C12.25 17.7644 12.0337 18.125 12.0337 19.4375C12.0337 20.5048 12.1923 20.8798 12.625 20.8798C12.899 20.8798 13.0865 20.7212 13.2885 20.274ZM12.5962 15.8029H11.3558V15.7019L11.4856 15.5V11.6346L11.3558 11.4327V11.3173L12.4663 11.2308V15.4856L12.5962 15.6875V15.8029ZM14.3413 15.8894C13.5481 15.8894 13.101 15.2115 13.101 14C13.101 12.7885 13.5913 12.1683 14.3413 12.1683C14.7019 12.1683 14.9183 12.3269 15.0048 12.601V11.6202L14.875 11.4183V11.3029L15.9856 11.2163V15.4712L16.1154 15.6731V15.774H15.1346L15.0481 15.2692C14.9615 15.7019 14.7452 15.8894 14.3413 15.8894ZM16.7644 20.851L16.8942 21.0529V21.1538H15.6538V21.0529L15.7837 20.851V18.3125C15.7837 18.0385 15.6683 17.8798 15.4663 17.8798C15.1923 17.8798 15.0048 18.1106 15.0048 18.4856V20.8221L15.1346 21.024V21.125H13.8942V21.024L14.024 20.8221V16.9567L13.8942 16.7548V16.6538L15.0048 16.5673V17.9808C15.1346 17.649 15.4952 17.5048 15.8269 17.5048C16.4183 17.5048 16.7356 17.8654 16.7356 18.5721V20.851H16.7644ZM14.125 14C14.125 15.2115 14.2404 15.601 14.5577 15.601C14.9327 15.601 15.0192 15.0817 15.0192 13.9856C15.0192 12.9183 14.9327 12.4135 14.5577 12.4135C14.2404 12.4423 14.125 12.8029 14.125 14ZM21.1635 15.4856L21.2933 15.6875V15.7885H20.0529V15.7019L20.1827 15.5V12.9615C20.1827 12.7308 20.0817 12.5433 19.8654 12.5433C19.6058 12.5433 19.4471 12.8173 19.4471 13.1635V15.5L19.5769 15.7019V15.8029H18.3365V15.7019L18.4663 15.5V12.9615C18.4663 12.7308 18.3654 12.5433 18.1635 12.5433C17.8894 12.5433 17.7452 12.8173 17.7452 13.1635V15.5L17.875 15.7019V15.8029H16.6346V15.7019L16.7644 15.5V12.6442L16.6346 12.4712V12.3702L17.6154 12.2548H17.7019L17.7308 12.6731C17.8462 12.3558 18.1923 12.1683 18.5962 12.1683C19 12.1683 19.274 12.3702 19.4038 12.7308C19.5337 12.3702 19.8798 12.1683 20.2981 12.1683C20.8606 12.1683 21.1635 12.5288 21.1635 13.2067V15.4856ZM19.8077 20.101C19.8077 20.7356 19.4183 21.2404 18.4663 21.2404C18.2356 21.2404 17.8894 21.2115 17.3846 21.125V19.8413H17.6731L17.774 20.1154C18.0048 20.8077 18.1779 21.0096 18.5529 21.0096C18.9135 21.0096 19.0865 20.8221 19.0865 20.476C19.0865 20.1875 18.9279 20 18.5962 19.8125L17.976 19.4952C17.5721 19.2788 17.3846 18.976 17.3846 18.5721C17.3846 17.9087 17.875 17.5481 18.6971 17.5481C18.9567 17.5481 19.2596 17.5769 19.5913 17.649V18.6587H19.3029L19.1442 18.2981C18.9856 17.9231 18.8413 17.7933 18.5529 17.7933C18.25 17.7933 18.0769 17.9519 18.0769 18.1971C18.0769 18.4135 18.2067 18.5721 18.5529 18.7596L19.1731 19.0913C19.5913 19.2933 19.8077 19.6106 19.8077 20.101ZM24.3942 15.4856L24.524 15.6875V15.7885H23.4567L23.4279 15.3702C23.3125 15.6875 22.9952 15.875 22.6058 15.875C22.0721 15.875 21.7115 15.5577 21.7115 14.9663C21.7115 14.3894 22.0288 14.0288 22.9952 13.6394L23.4279 13.4519V12.9615C23.4279 12.5721 23.3125 12.3846 23.0529 12.3846C22.8221 12.3846 22.6635 12.5433 22.5192 12.9183L22.3029 13.4519H21.9856V12.3269C22.3894 12.2115 22.8077 12.125 23.1683 12.125C23.976 12.125 24.4087 12.5 24.4087 13.1923V15.4856H24.3942ZM23.4135 14.8654V13.726L23.2548 13.7981C22.851 13.9856 22.6635 14.3029 22.6635 14.8221C22.6635 15.2404 22.7788 15.4567 23.024 15.4567C23.2837 15.4567 23.4135 15.2115 23.4135 14.8654ZM28 15.7019V15.8029H26.7596V15.7019L26.8894 15.5V12.976C26.8894 12.7019 26.774 12.5577 26.5721 12.5577C26.2981 12.5577 26.1106 12.7885 26.1106 13.1635V15.5L26.2404 15.7019V15.8029H25V15.7019L25.1298 15.5V12.6442L25 12.4712V12.3702L25.9808 12.2548H26.0673L26.0962 12.6731C26.2115 12.3125 26.5865 12.1683 26.9327 12.1683C27.524 12.1683 27.8558 12.5288 27.8558 13.2356V15.5144L28 15.7019Z" fill="white"/>
</svg>

<svg width="32" height="32" fill="none" xmlns="http://www.w3.org/2000/svg"><path d="M0 16C0 7.163 7.163 0 16 0s16 7.163 16 16-7.163 16-16 16S0 24.837 0 16Z" fill="#7399C6"/><path d="M5.947 13.409h1.471v2.336c-.49.087-1.01.13-1.341.13-1.5.014-2.077-.88-2.077-2.38C4 11.895 4.779 11 6.293 11c.202 0 .592.014 1.068.115v1.443h-.332l-.202-.563c-.188-.519-.404-.735-.736-.735-.62 0-.937.793-.937 2.206 0 1.443.173 2.106.923 2.106.086 0 .202 0 .36-.029V13.9l-.519-.317v-.173h.03Zm1.4 6.346c0 .937-.635 1.485-1.79 1.485-.317 0-.778-.057-1.196-.13v-1.802h.331l.13.404c.303.937.534 1.24.938 1.24.418 0 .706-.317.706-.793 0-.375-.187-.635-.591-.866l-.663-.346c-.534-.288-.823-.721-.823-1.27 0-.821.664-1.312 1.774-1.312.26 0 .534.015 1.01.087v1.485h-.332l-.202-.533c-.187-.534-.375-.736-.764-.736-.39 0-.635.217-.635.577 0 .303.188.563.563.765l.707.389c.562.303.836.75.836 1.356Zm3.1 1.096.13.202v.1H9.51l-.03-.432c-.115.317-.418.505-.821.505-.534 0-.895-.317-.895-.909 0-.577.318-.937 1.284-1.327l.418-.187v-.49c0-.39-.115-.577-.375-.577-.23 0-.39.158-.533.533l-.217.534h-.317V17.72c.404-.115.822-.202 1.183-.202.807 0 1.226.375 1.226 1.068v2.264h.014Zm.447-6.808c0 1.197-.634 1.846-1.442 1.846-.808 0-1.442-.663-1.442-1.846 0-1.182.634-1.875 1.442-1.875.808 0 1.442.678 1.442 1.875Zm-1.413 6.173v-1.14l-.13.073c-.404.188-.591.505-.591 1.024 0 .433.115.635.36.635.231 0 .36-.231.36-.592Zm.39-6.173c0-1.298-.116-1.63-.434-1.63-.317 0-.432.332-.432 1.63 0 1.298.115 1.616.432 1.616.318 0 .433-.347.433-1.616Zm3.418 6.231.201.101c-.216.591-.504.865-1.096.865-.894 0-1.37-.692-1.37-1.831 0-1.226.563-1.89 1.529-1.89.26 0 .62.03.908.159v1.183h-.317l-.13-.433c-.173-.505-.288-.664-.475-.664-.289 0-.505.361-.505 1.674 0 1.067.158 1.442.591 1.442.274 0 .461-.159.664-.606Zm-.693-4.471h-1.24v-.101l.13-.202v-3.865l-.13-.202v-.116l1.11-.086v4.255l.13.201v.116Zm1.745.086c-.793 0-1.24-.678-1.24-1.889 0-1.211.49-1.832 1.24-1.832.36 0 .577.159.664.433v-.98l-.13-.203v-.115l1.11-.087v4.255l.13.202v.101h-.98l-.087-.505c-.087.433-.303.62-.707.62Zm2.423 4.962.13.202v.1h-1.24v-.1l.13-.202v-2.538c0-.274-.116-.433-.318-.433-.274 0-.461.23-.461.606v2.336l.13.202v.101h-1.24v-.101l.129-.202v-3.865l-.13-.202v-.101l1.11-.087v1.414c.13-.332.491-.476.823-.476.591 0 .909.36.909 1.067v2.279h.028ZM14.125 14c0 1.211.115 1.601.433 1.601.375 0 .461-.52.461-1.615 0-1.068-.086-1.572-.461-1.572-.318.028-.433.389-.433 1.586Zm7.038 1.486.13.201v.102h-1.24v-.087l.13-.202v-2.539c0-.23-.101-.418-.318-.418-.26 0-.418.274-.418.62V15.5l.13.202v.1h-1.24v-.1l.13-.202v-2.539c0-.23-.102-.418-.303-.418-.275 0-.419.274-.419.62V15.5l.13.202v.1h-1.24v-.1l.13-.202v-2.856l-.13-.173v-.1l.98-.116h.087l.029.418c.115-.317.461-.505.865-.505.404 0 .678.202.808.563.13-.36.476-.563.894-.563.563 0 .866.36.866 1.039v2.279ZM19.808 20.1c0 .635-.39 1.14-1.342 1.14-.23 0-.577-.03-1.081-.116v-1.284h.288l.101.274c.23.693.404.895.779.895.36 0 .534-.188.534-.534 0-.288-.16-.476-.49-.663l-.621-.318c-.404-.216-.591-.519-.591-.923 0-.663.49-1.024 1.312-1.024.26 0 .563.029.894.101v1.01h-.288l-.159-.36c-.158-.376-.303-.506-.591-.506-.303 0-.476.159-.476.404 0 .216.13.375.476.563l.62.331c.418.202.635.52.635 1.01Zm4.586-4.615.13.201v.102h-1.067l-.03-.419c-.114.318-.432.505-.821.505-.534 0-.895-.317-.895-.909 0-.577.318-.937 1.284-1.327l.433-.187v-.49c0-.39-.116-.577-.375-.577-.23 0-.39.158-.534.533l-.216.534h-.317v-1.125c.403-.116.822-.202 1.182-.202.808 0 1.24.375 1.24 1.067v2.294h-.014Zm-.98-.62v-1.14l-.16.072c-.403.188-.59.505-.59 1.024 0 .418.115.635.36.635.26 0 .39-.246.39-.592Zm4.586.836v.1h-1.24v-.1l.13-.202v-2.524c0-.274-.116-.418-.318-.418-.274 0-.461.23-.461.606V15.5l.13.202v.1H25v-.1l.13-.202v-2.856l-.13-.173v-.1l.98-.116h.087l.03.418c.114-.36.49-.505.836-.505.591 0 .923.36.923 1.068v2.278l.144.188Z" fill="#fff"/></svg>
